X: 7
T: Humours Of Westmeath, The
Z: JACKB
S: https://thesession.org/tunes/428#setting26873
R: slip jig
M: 9/8
L: 1/8
K: Dmaj
|: d3 dAG FED |df/g/d dAF G2E | ABc dAG FGA | =cBc E2 F G2 E |
D3 dAG FED |D3 dAF G2 E | D3 dAG FGA | =cBc E2 F G2 E ||
|:d2 g fdf ece | df/g/d fdf g2 e | d2 g fdf ece | =cBc E2 F G2 E |
df/g/d fdf ece | df/g/d fdf g2 e | afd gec d2 B | =cBc E2 F G2 E |]
